packages/katcn/src/icons/svg/invisibile.svg

<svg xmlns="http://www.w3.org/2000/svg" fill="none" viewBox="0 0 24 24"><path fill="#000" d="M21.8 9.8C19.8 8.1 16.5 6 12 6c-.5 0-1 0-1.3.1-.6.1-1 .6-.9 1.2.1.5.6.9 1.1.9.3 0 .7-.1 1.1-.1 3.9 0 6.8 1.8 8.5 3.3.3.2.5.6.5 1.1s-.2.8-.5 1.1c-.6.5-1.3 1-2 1.4-.5.3-.6.9-.4 1.4.2.3.5.5.9.5.2 0 .3 0 .5-.1.8-.5 1.6-1 2.3-1.6.8-.7 1.2-1.6 1.2-2.6 0-1.2-.4-2.1-1.2-2.8M4.2 3.3c-.4-.4-1-.4-1.4 0s-.4 1 0 1.4l2.8 2.8C4.2 8.3 3 9.2 2.2 9.8Q1 10.85 1 12.5c0 1.1.4 2 1.2 2.6 2 1.7 5.3 3.8 9.8 3.8 1.5 0 2.9-.2 4.3-.7l3.5 3.5c.2.2.5.3.7.3s.5-.1.7-.3c.4-.4.4-1 0-1.4zM12 16.8c-3.9 0-6.8-1.8-8.5-3.3-.3-.2-.5-.6-.5-1s.2-.8.5-1.1c.8-.7 2.1-1.6 3.7-2.3l2.6 2.6c-.1.2-.1.5-.1.8 0 1.3 1 2.3 2.3 2.3.3 0 .5-.1.8-.1l1.9 1.9c-.9.1-1.8.2-2.7.2"/></svg>

<svg width="24" height="24" viewBox="0 0 24 24" fill="none" xmlns="http://www.w3.org/2000/svg">
<path d="M21.8 9.8C19.8 8.1 16.5 6 12 6C11.5 6 11 6 10.7 6.1C10.1 6.2 9.69998 6.7 9.79998 7.3C9.89998 7.8 10.4 8.2 10.9 8.2C11.2 8.2 11.6 8.1 12 8.1C15.9 8.1 18.8 9.9 20.5 11.4C20.8 11.6 21 12 21 12.5C21 13 20.8 13.3 20.5 13.6C19.9 14.1 19.2 14.6 18.5 15C18 15.3 17.9 15.9 18.1 16.4C18.3 16.7 18.6 16.9 19 16.9C19.2 16.9 19.3 16.9 19.5 16.8C20.3 16.3 21.1 15.8 21.8 15.2C22.6 14.5 23 13.6 23 12.6C23 11.4 22.6 10.5 21.8 9.8Z" fill="black"/>
<path d="M4.2 3.3C3.8 2.9 3.2 2.9 2.8 3.3C2.4 3.7 2.4 4.3 2.8 4.7L5.6 7.5C4.2 8.3 3 9.2 2.2 9.8C1.4 10.5 1 11.4 1 12.5C1 13.6 1.4 14.5 2.2 15.1C4.2 16.8 7.5 18.9 12 18.9C13.5 18.9 14.9 18.7 16.3 18.2L19.8 21.7C20 21.9 20.3 22 20.5 22C20.7 22 21 21.9 21.2 21.7C21.6 21.3 21.6 20.7 21.2 20.3L4.2 3.3ZM12 16.8C8.1 16.8 5.2 15 3.5 13.5C3.2 13.3 3 12.9 3 12.5C3 12.1 3.2 11.7 3.5 11.4C4.3 10.7 5.6 9.8 7.2 9.1L9.8 11.7C9.7 11.9 9.7 12.2 9.7 12.5C9.7 13.8 10.7 14.8 12 14.8C12.3 14.8 12.5 14.7 12.8 14.7L14.7 16.6C13.8 16.7 12.9 16.8 12 16.8Z" fill="black"/>
</svg>
